X: 65
T: They Move With a Purpose
C: Teton Sioux band 1911-1914
N: Derived from sioux065.krn
O: South Dakota, U.S.A.
N: Teton Sioux Music by Frances Densmore, 1918
Z: transcribed to **kern format by Craig Sapp
L: 1/8
M: 3/4
Q: 1/4=58
K: A clef=bass
%%linebreak <none>
C C [I:setbarnb 1]| 
C6 ||  
[M:2/4]B,2B,3/ A,/ | 
A,< A,A,2- | 
A,4- | 
A,2F,3/ A,/ ||  
[M:3/4]A,6 ||  
[M:2/4]A,2(A,3/ F,/) | 
E, ^D, E,3/ D,/ | 
E,4 | 
E,7/E/ | 
(3(E B,) B,B,2 | 
B,2(B,3/ A,/) ||  
A, A, (A,3/ F,/) | 
E, ^D,E,2- ||  
[M:3/4]E,4C, C, | 
C,6 ||  
[M:2/4]B,,2B,,2 | 
A,,< G,, A,,3/ G,,/ | 
A,,4 ||  
[M:3/4]A,,4 :|]  



